X: 100769
T: Jackson's Favorite
S: Allan's Irish Fiddler
Z: B.Black
L: 1/8
M: 6/8
R: jig
K: D
D|DFE EFE|DFA AFA|BAB def|gfg e2 D|
DFE EFE|DFA AFA|BAB d2 e|fdd d2 :|
g|fed faf|ede fdB|AFA def|gfg e2 a/g/|
fed faf|ede fdB|AFA d2 e|fdd d2 :|
